X: 634
T:O'Carolan's Receipt for Drinking
M:2/4
L:1/16
B:O'Neill's 634
N:"With spirit."
Z:Transcribed by Ted Hastings, ted@hastings.nu
K:G
g>f|edcB cBAG| E2G>A G2g>f|edBc cBcd|e2AB A2(Bc)|
dBde d2(Bd)|egfa g2(fg)|edcB cBAG|f2g>a G2||
(Bc)|d>Bd>e d<BAG|E>FG>A G2(Bc)|dBde {e}d2(Bd)|egfa g2 z2|
G2>B2 A2>c2|BABd e2>f2|gfed BABd|egfa g2ga|
babg afae|gfgd edcB|cBcd efgf|edgB A2(ge)|
dcBA G2(ge)|dBAG E2(GA)|BAGE AGED|E2(GA) G2||


